X:1
T:Venezuela
M:3/4
L:1/4
K:C
 E| A B c| B c d| e3/2- f/2- e-| d- c- B| A3-| A z A/2B/2| c3/2- d/2 c|\
 B- c B| A3-| A z E| A A A| B B2| c c c| d2 c/2d/2| e3/2- f/2 e| d3/2- e/2 d|\
 c3/2- d/2 c| B2 E| A- B c| B- c d| e3/2- f/2 e|(3d3.99999962500005/11.9999985000002d3.99999962500005/11.9999985000002e3.99999962500005/11.9999985000002d3.99999962500005/11.9999985000002e3.99999962500005/11.9999985000002d3.99999962500005/11.9999985000002 c B|\
 A3| A z A| A- c e| a3/2- g/2 f| e3/2- f/2 e| d3/2 c/2 d| e3/2- f/2- e-|\
(3d3.99999962500005/11.9999985000002d3.99999962500005/11.9999985000002e3.99999962500005/11.9999985000002d3.99999962500005/11.9999985000002e3.99999962500005/11.9999985000002d3.99999962500005/11.9999985000002 c- B|\
 A3-| A z|
